X:1
T:Stoke, 76.76 D
T:Stoke, 76.76 D
T:Mrs. G. E. Cole, 1889
T:Public Domain Courtesy of the Cyber Hymnal™
C:Mrs. G. E. Cole, 1889
Z:Public Domain
Z:Courtesy of the Cyber Hymnal™
%%score ( 1 2 ) ( 3 4 )
L:1/8
Q:1/4=113
M:4/4
K:Eb
V:1 treble 
V:2 treble 
V:3 bass 
V:4 bass 
V:1
 [EG]2 | [EB]2 [FA]2 [EG]2 [DF]2 x | E4 [B,E]2 E2 | [EF]2 [EF]2 [DA]2 [DA]2 | [EG]6 [EG]2 | %5
 [EB]2 [EA]2 [EG]2 [DF]2 | [CE]4 [CE]2 [CG]2 | [DF]2 [DB]2 [Fd]2 [Ec]2 | [DB]6 [EB]2 | %9
 [EA]2 [FA]2 [EG]2 [EG]2 | [DF]4 [CE]2 [_DB]2 | [CA]2 [EA]2 [EG]2 [EG]2 | [DF]6 [DF]2 | %13
 [EG]2 [EA]2 [EB]2 [Ee]2 | c4 [GB]2 [FA]2 | [EG]2 [EB]2 [EA]2 [DF]2 | E6 |] %17
V:2
 x2 | x9 | (E2 C2) E2 x2 | x8 | x8 | x8 | x8 | x8 | x8 | x8 | x8 | x8 | x8 | x8 | (E2 F2) x4 | x8 | %16
 E6 |] %17
V:3
 [E,B,]2 | [G,,B,]2 [A,,C]2 B,3 z A, | G,2 A,2 [E,G,]2 [C,G,]2 | %3
 [A,,C]2 [A,,C]2 [B,,F,]2 [B,,B,]2 | [E,B,]6 [E,E]2 | [E,D]2 [E,C]2 [E,B,]2 [=B,,A,]2 | %6
 [C,G,]4 [C,G,]2 [E,=A,]2 | [D,B,]2 [G,B,]2 [F,B,]2 [F,=A,]2 | [B,,B,]6 [G,,B,]2 | %9
 [C,C]2 [D,B,]2 [E,B,]2 [C,C]2 | ([C,A,]2 [=B,,G,]2) [C,G,]2 [G,,E,]2 | %11
 [A,,E,]2 [C,A,]2 [E,B,]2 [G,,B,]2 | [B,,B,]6 [B,,B,]2 | [E,B,]2 [C,C]2 [G,,B,]2 [G,B,]2 | %14
 (C2 D2) [E,E]2 [D,B,]2 | [E,B,]2 [G,,_D]2 [A,,C]2 [B,,A,]2 | [E,G,]6 |] %17
V:4
 x2 | x4 B,,2 B,,2 x | E,4 x4 | x8 | x8 | x8 | x8 | x8 | x8 | x8 | x8 | x8 | x8 | x8 | A,4 x4 | %15
 x8 | x6 |] %17

